svg/300/outlined/pivot_table_chart-fill.svg

<svg xmlns="http://www.w3.org/2000/svg" width="48" height="48" viewBox="0 -960 960 960"><path d="M393.078-647.693v-172.306h369.228q23.616 0 40.654 17.039 17.039 17.038 17.039 40.654v114.613H393.078ZM197.694-140.001q-23.616 0-40.654-17.039-17.039-17.038-17.039-40.654v-369.228h172.306v426.921H197.694Zm-57.693-507.692v-114.613q0-23.616 17.039-40.654 17.038-17.039 40.654-17.039h114.613v172.306H140.001Zm366.537 547.692L364.462-241.693l142.076-141.691 32.614 32.614-86.769 86.385H593.23q43.539 0 72.962-29.423 29.423-29.423 29.423-72.962v-140.847l-86.385 86.769-32.614-32.999 141.691-141.691 141.692 141.691-32.615 32.999-86.385-86.769v140.847q0 62.154-43.308 104.961-43.307 42.808-104.461 42.808H452.383l86.769 86.385-32.614 32.615Z"/></svg>

<svg xmlns="http://www.w3.org/2000/svg" width="48" height="48" viewBox="0 -960 960 960"><path d="M393.08-647.69V-820h369.23q23.61 0 40.65 17.04T820-762.31v114.62H393.08ZM197.69-140q-23.61 0-40.65-17.04T140-197.69v-369.23h172.31V-140H197.69ZM140-647.69v-114.62q0-23.61 17.04-40.65T197.69-820h114.62v172.31H140ZM506.54-100 364.46-241.69l142.08-141.69 32.61 32.61-86.77 86.39h140.85q43.54 0 72.96-29.43 29.43-29.42 29.43-72.96v-140.85l-86.39 86.77-32.61-33 141.69-141.69L860-453.85l-32.62 33L741-507.62v140.85q0 62.15-43.31 104.96Q654.38-219 593.23-219H452.38l86.77 86.38L506.54-100Z"/></svg>
